src/symbols/religion/262F.svg

<svg id="emoji" viewBox="0 0 72 72" xmlns="http://www.w3.org/2000/svg">
  <g id="grid">
    <path fill="#b3b3b3" d="M68,4V68H4V4H68m4-4H0V72H72V0Z"/>
    <path fill="none" stroke="#00a5ff" stroke-miterlimit="10" stroke-width="0.1" d="M12.923,10.9583H59.0769A1.9231,1.9231,0,0,1,61,12.8814V59.0352a1.9231,1.9231,0,0,1-1.9231,1.9231H12.9231A1.9231,1.9231,0,0,1,11,59.0352V12.8813A1.923,1.923,0,0,1,12.923,10.9583Z"/>
    <rect x="16" y="4" rx="2.2537" width="40" height="64" fill="none" stroke="#00a5ff" stroke-miterlimit="10" stroke-width="0.1"/>
    <rect x="16" y="4" rx="2.2537" width="40" height="64" transform="translate(72) rotate(90)" fill="none" stroke="#00a5ff" stroke-miterlimit="10" stroke-width="0.1"/>
    <circle cx="36" cy="36" r="29" fill="none" stroke="#00a5ff" stroke-miterlimit="10" stroke-width="0.1"/>
  </g>
  <g id="color">
    <circle cx="36" cy="36.8833" r="25" fill="#FFFFFF" stroke="none"/>
    <path fill="#3F3F3F" stroke="none" stroke-linecap="round" stroke-linejoin="round" stroke-miterlimit="10" stroke-width="2" d="M10.8833,36.8833c0,13.6133,10.8253,24.6897,24.3381,25.0915c-6.5806-0.4018-11.7797-5.8647-11.7797-12.5332 c0-6.9322,5.6137-12.5583,12.5583-12.5583c6.9322,0,12.5583-5.6261,12.5583-12.5583c0-6.6685-5.2117-12.1313-11.7923-12.5332 c-0.2511-0.0126-0.5022-0.0251-0.766-0.0251s-0.5275,0-0.7786,0.0251C21.7086,12.1937,10.8833,23.2701,10.8833,36.8833z"/>
    <circle cx="37.3437" cy="48.9394" r="4.0187" fill="#3F3F3F" stroke="none" stroke-miterlimit="10" stroke-width="2"/>
    <circle cx="37.3437" cy="23.8227" r="4.0187" fill="#FFFFFF" stroke="none" stroke-miterlimit="10" stroke-width="2"/>
  </g>
  <g id="hair"/>
  <g id="skin"/>
  <g id="skin-shadow"/>
  <g id="line">
    <path fill="#000000" stroke="#000000" stroke-miterlimit="10" d="M45.2635,60.483"/>
    <path fill="#000000" stroke="#000000" stroke-miterlimit="10" d="M45.2635,60.483"/>
    <path fill="none" stroke="#000000" stroke-linecap="round" stroke-linejoin="round" stroke-miterlimit="10" stroke-width="2" d="M23.4417,49.4417c0,6.6685,5.1992,12.1314,11.7797,12.5332C35.4851,61.9874,35.7362,62,36,62s0.5149-0.0126,0.766-0.0251 c13.5128-0.3893,24.3506-11.4657,24.3506-25.0915c0-13.6258-10.8379-24.7022-24.3506-25.0915 c6.5806,0.4019,11.7923,5.8647,11.7923,12.5332c0,6.9322-5.6261,12.5583-12.5583,12.5583 C29.0554,36.8833,23.4417,42.5094,23.4417,49.4417z"/>
    <path fill="none" stroke="#000000" stroke-linecap="round" stroke-linejoin="round" stroke-miterlimit="10" stroke-width="2" d="M10.8833,36.8833c0,13.6133,10.8253,24.6897,24.3381,25.0915c-6.5806-0.4018-11.7797-5.8647-11.7797-12.5332 c0-6.9322,5.6137-12.5583,12.5583-12.5583c6.9322,0,12.5583-5.6261,12.5583-12.5583c0-6.6685-5.2117-12.1313-11.7923-12.5332 c-0.2511-0.0126-0.5022-0.0251-0.766-0.0251s-0.5275,0-0.7786,0.0251C21.7086,12.1937,10.8833,23.2701,10.8833,36.8833z"/>
    <circle cx="37.3437" cy="48.9394" r="4.0187" fill="none" stroke="#000000" stroke-miterlimit="10" stroke-width="2"/>
    <circle cx="37.3437" cy="23.8227" r="4.0187" fill="none" stroke="#000000" stroke-miterlimit="10" stroke-width="2"/>
  </g>
</svg>

<svg viewBox="0 0 72 72" xmlns="http://www.w3.org/2000/svg"><path fill="#b3b3b3" d="M68 4v64H4V4h64m4-4H0v72h72V0z"/><path fill="none" stroke="#00a5ff" stroke-miterlimit="10" stroke-width=".1" d="M12.923 10.958h46.154A1.923 1.923 0 0161 12.881v46.154a1.923 1.923 0 01-1.923 1.923H12.923A1.923 1.923 0 0111 59.035V12.881a1.923 1.923 0 011.923-1.923z"/><rect x="16" y="4" rx="2.254" width="40" height="64" fill="none" stroke="#00a5ff" stroke-miterlimit="10" stroke-width=".1"/><rect x="16" y="4" rx="2.254" width="40" height="64" transform="rotate(90 36 36)" fill="none" stroke="#00a5ff" stroke-miterlimit="10" stroke-width=".1"/><circle cx="36" cy="36" r="29" fill="none" stroke="#00a5ff" stroke-miterlimit="10" stroke-width=".1"/><g stroke-linecap="round" stroke-miterlimit="10" stroke-width="6" stroke="#fff" fill="none" stroke-linejoin="round"><path d="M23.442 49.442c0 6.668 5.199 12.131 11.78 12.533.263.012.514.025.778.025s.515-.013.766-.025c13.513-.39 24.35-11.466 24.35-25.092 0-13.625-10.837-24.702-24.35-25.091 6.58.402 11.792 5.865 11.792 12.533 0 6.932-5.626 12.558-12.558 12.558-6.945 0-12.558 5.626-12.558 12.559z"/><path d="M10.883 36.883c0 13.614 10.826 24.69 24.338 25.092-6.58-.402-11.78-5.865-11.78-12.533 0-6.933 5.614-12.559 12.559-12.559 6.932 0 12.558-5.626 12.558-12.558 0-6.668-5.211-12.131-11.792-12.533-.251-.013-.502-.025-.766-.025s-.527 0-.779.025c-13.512.402-24.338 11.478-24.338 25.091z"/><circle cx="37.344" cy="48.939" r="4.019"/><circle cx="37.344" cy="23.823" r="4.019"/></g><circle cx="36" cy="36.883" r="25" fill="#FFF"/><path fill="#3F3F3F" d="M10.883 36.883c0 13.614 10.826 24.69 24.338 25.092-6.58-.402-11.78-5.865-11.78-12.533 0-6.933 5.614-12.559 12.559-12.559 6.932 0 12.558-5.626 12.558-12.558 0-6.668-5.211-12.131-11.792-12.533-.251-.013-.502-.025-.766-.025s-.527 0-.779.025c-13.512.402-24.338 11.478-24.338 25.091z"/><circle cx="37.344" cy="48.939" r="4.019" fill="#3F3F3F"/><circle cx="37.344" cy="23.823" r="4.019" fill="#FFF"/><g fill="none" stroke="#000" stroke-miterlimit="10" stroke-width="2"><path stroke-linecap="round" stroke-linejoin="round" d="M23.442 49.442c0 6.668 5.199 12.131 11.78 12.533.263.012.514.025.778.025s.515-.013.766-.025c13.513-.39 24.35-11.466 24.35-25.092 0-13.625-10.837-24.702-24.35-25.091 6.58.402 11.792 5.865 11.792 12.533 0 6.932-5.626 12.558-12.558 12.558-6.945 0-12.558 5.626-12.558 12.559z"/><path stroke-linecap="round" stroke-linejoin="round" d="M10.883 36.883c0 13.614 10.826 24.69 24.338 25.092-6.58-.402-11.78-5.865-11.78-12.533 0-6.933 5.614-12.559 12.559-12.559 6.932 0 12.558-5.626 12.558-12.558 0-6.668-5.211-12.131-11.792-12.533-.251-.013-.502-.025-.766-.025s-.527 0-.779.025c-13.512.402-24.338 11.478-24.338 25.091z"/><circle cx="37.344" cy="48.939" r="4.019"/><circle cx="37.344" cy="23.823" r="4.019"/></g></svg>
